X:1
T:Leggiadra Pastorella
T:Claudio Saracini
T:Aria
T:Source : Le terze Musiche per cantar e sonar---Venetia---A.Vincenti---1620. Editor : André Vierendeels (09/12/15).
T:Notes : Original clefs : C1, F4
T:Leggiadra Pastorella
C:Claudio Saracini
%%score 1 2
L:1/8
Q:1/4=82
M:4/4
K:C
V:1 treble nm="Soprano" snm="S"
V:2 bass nm="BC" snm="BC"
V:1
 z2 B2 BABc | d2 G2 A3 A | B4 B4 | z2 cB cd e2 | d2 A2 B3 B | A4 A4 :: e6 Bc | d3 A c4 | B8 | %9
w: Leg- gia- * * *|* dra Pa- sto-|rel- la,|ch'hai _ _ _ _|ne' be- gl'oc- chi'A-|mo- re.|E sei si|va- gae bel-|la,|
w: Non si _ _ _|_ chi fia bel-|lez- za,|chi _ _ _ _|te ben mio nin|mi- ra.|Ne tu chi|fia dol- cez-|za,|
w: Hai pri- * * *|* ma- ve- ra|cier- na|nel _ _ _ _|tuo bel vi- so'al-|tie- ro.|Nel tuo- be-|gli'oc- chi ver-|na,|
w: O va- * * *|* gh'et a- mo-|ro- se,|lu- * * * *|ci del cor vi-|va- ce.|O oc- chi'o-|ve na- sco-|se,|
w: In que- * * *|* sti'a- mor s'a-|ni- da,|Par- * * * *|go- let- ta Vol-|ca- no.|E nel- la|fiam- ma'in- fi-|da,|
w: Dol- ce- * * *|* men- te la|ro- sa,|ar- * * * *|de'in tè ma- tu-|ti- na.|Nel la guan-|ci'a mo- ro-|sa,|
w: Tu piu _ _ _|_ chia- ra del|So- le,|ri- * * * *|splen- di'e del- le|stel- le.|Ri- mi- ra|pur chi vuo-|le,|
 z2 c2 cBcd | e2 c2 c2 de | c4 c4 | f2 ff e3 e | d4 d4 | z2 e2 d2 c2 | B3 B A4 | A4 z2 d2 | %17
w: che m'ar- * * *|* di'e se t'il _|co- re,|non is- de- gnar ch'io|can- ti,|di tue bel-|lez- ze'i van-|ti, di-|
w: chi per _ _ _|_ te non so- *|spi- ra,|e chi per te d'a-|mo- re,|non ar- d'e|sen- za co-|re, non|
w: dop- pio _ _ _|_ am- ce lu- sin-|ghie- ro,|che t'a- vi- va'et i-|no- stra,|che ne fa|ric- ca mo-|stra, che|
w: s'en han- * * *|* no mil- le _|fa- ci,|che fiam- mo del mio|co- re,|dol- c'in- cen-|di d'A- mo-|re, dol-|
w: for- ma _ _ _|_ con va- ga _|ma- no,|sa- et- t'e fol s'ap-|pa- ga,|di far nel|mio cor pia-|ga, di|
w: il suo _ _ _|_ ver- mi- gli- *|o'as- sint,|o- ve nel ciel l'Au-|ro- ra,|il tuo la-|te co- lo-|ra, il|
w: le tue- _ _ _|_ fa- tez- ze _|bel- le,|ve- dra che nel tuo|vi- so,|rac- col- to'e'un|Pa- ra- di-|so, rac-|
 c2 B2 A3 A | G4 G4 :| %19
w: tue bel- lez- ze'i|van- ti.|
w: ar- de sen- za|co- re.|
w: ne fa ric- ca|mo- stra.|
w: c'in- cen- di d'A-|mo re.|
w: far nel mio cor|pia- ga.|
w: tuo la- te co-|lo- ra.|
w: col- to'e'un Pa- ra-|di- so.|
V:2
 G,8 | G,2 E,2 D,2 D,2 | G,,4 G,,4 | C,4 C,4 | D,2 F,2 E,2 E,2 | A,,4 A,,4 :: A,2 E,F, G,4 | %7
 D,E, F,4 C,D, | E,4 E,,4 | C,8- | C,2 E,2 G,4 | C,4 C,4 | D,4 A,,4 | D,4 D,,4 | C,4 D,2 A,,2 | %15
 E,2 E,2 A,,4 | A,,4 B,,4 | C,2 G,,2 D,2 D,2 | G,,4 G,,4 :| %19

